lib/functional/office&editing/file-rs.svg

<svg xmlns="http://www.w3.org/2000/svg" fill="none" stroke="currentColor" aria-hidden="true" viewBox="0 0 32 32"><g id="Icon-FileRs"><g clip-path="url(#clip0_12_1390)"><g id="size=md (32px)"><g id="FileRs"><path id="Vector" stroke-linecap="round" stroke-linejoin="round" stroke-width="2" d="M6 25H8C8.53043 25 9.03914 24.7893 9.41421 24.4142C9.78929 24.0391 10 23.5304 10 23C10 22.4696 9.78929 21.9609 9.41421 21.5858C9.03914 21.2107 8.53043 21 8 21H6V27"/><path id="Vector_2" stroke-linecap="round" stroke-linejoin="round" stroke-width="2" d="M8.59961 24.9125L9.99961 27"/><path id="Vector_3" stroke-linecap="round" stroke-linejoin="round" stroke-width="2" d="M14 26.5C14.5418 26.9041 15.1991 27.1232 15.875 27.125C17 27.125 18 26.75 18 25.5C18 23.5 14 24.375 14 22.5C14 21.5 14.75 20.875 15.875 20.875C16.5509 20.8768 17.2082 21.0959 17.75 21.5"/><path id="Vector_4" stroke-linecap="round" stroke-linejoin="round" stroke-width="2" d="M23 28H25C25.2652 28 25.5196 27.8946 25.7071 27.7071C25.8946 27.5196 26 27.2652 26 27V11L19 4H7C6.73478 4 6.48043 4.10536 6.29289 4.29289C6.10536 4.48043 6 4.73478 6 5V16"/><path id="Vector_5" stroke-linecap="round" stroke-linejoin="round" stroke-width="2" d="M19 4V11H26"/></g></g></g></g><defs><clipPath id="clip0_12_1390"><rect width="32" height="32" fill="white" rx="5"/></clipPath></defs></svg>

<svg xmlns="http://www.w3.org/2000/svg" fill="none" stroke="currentColor" aria-hidden="true" viewBox="0 0 32 32"><g stroke="#101828" stroke-linecap="round" stroke-linejoin="round" stroke-width="2" clip-path="url(#a)"><path d="M6 25h2a2 2 0 1 0 0-4H6v6m2.6-2.087L10 27m4-.5a3.15 3.15 0 0 0 1.875.625C17 27.125 18 26.75 18 25.5c0-2-4-1.125-4-3 0-1 .75-1.625 1.875-1.625a3.15 3.15 0 0 1 1.875.625"/><path d="M23 28h2a1 1 0 0 0 1-1V11l-7-7H7a1 1 0 0 0-1 1v11"/><path d="M19 4v7h7"/></g><defs><clipPath id="a"><rect width="32" height="32" fill="#fff" rx="5"/></clipPath></defs></svg>
